LUTs/ARRI_LogC_to_Rec709.cube
TITLE "Generated by Resolve"
LUT_3D_SIZE 5
0 0 0
0.241703 0 0
0.700832 0 0
1 0 0
1 0 0
0 0.187564 0
0.173388 0.178988 0
0.712428 0.137209 0
1 0.129213 0
1 0.155947 0
0 0.626139 0
0 0.681712 0
0.624903 0.631739 0
1 0.607217 0
1 0.614816 0
0 1 0
0 1 0
0.252979 1 0
0.93904 0.957687 0
1 0.940368 0
0 1 0
0 1 0
0.159319 1 0
0.61323 1 0
1 1 0
0 0 0.284153
0.247883 0 0.239246
0.730632 0 0.15285
1 0 0.0988937
1 0 0.0937819
0 0.182132 0.165667
0.175311 0.177356 0.164675
0.686717 0.14931 0.14284
1 0.139834 0.137957
1 0.16672 0.16672
0 0.637781 0.0303502
0.0840162 0.660121 0.0740368
0.63151 0.637415 0.0525978
1 0.609064 0.0183413
1 0.614923 0.0383917
0 1 0
0.0099031 1 0
0.31519 1 0.0971237
0.933913 0.947997 0
1 0.932525 0
0 1 0
0 1 0
0.23299 1 0.0904707
0.645106 1 0.0195926
1 1 0
0 0 0.866346
0.20856 0 0.824079
0.715908 0 0.733883
1 0 0.671092
1 0 0.665446
0 0.155535 0.757794
0.150057 0.155962 0.760678
0.710384 0.122423 0.726207
1 0.105425 0.708721
1 0.130556 0.735439
0 0.620966 0.620005
0.0525063 0.646357 0.650568
0.625193 0.62208 0.631403
1 0.599939 0.611978
1 0.605463 0.620386
0 1 0.544396
0 1 0.542336
0.485405 0.971588 0.485206
0.909529 0.91899 0.429191
1 0.901732 0.395193
0 1 0.507668
0 1 0.490806
0.436866 1 0.434867
0.725216 1 0.494835
1 1 0.374746
0 0 1
0.176089 0 1
0.687022 0 1
1 0 1
1 0 1
0 0.169802 1
0.132204 0.143328 1
0.695979 0.111498 1
1 0.0941634 1
1 0.11783 1
0 0.54641 1
0 0.545342 1
0.601175 0.603387 1
1 0.572198 1
1 0.569345 1
0 1 1
0 1 1
0.436728 0.942931 0.951675
0.897704 0.897597 0.908721
1 0.886854 0.899733
0 1 0.992035
0 1 0.976654
0.395575 1 0.909834
0.857206 1 0.864134
1 1 0.857939
0 0 1
0.160708 0 1
0.674769 0 1
1 0 1
1 0 1
0 0.1776 1
0.131594 0.145922 1
0.697414 0.115175 1
1 0.098497 1
1 0.122301 1
0 0.542458 1
0 0.554681 1
0.598962 0.604364 1
1 0.568307 1
1 0.561944 1
0 0.975555 1
0 0.933806 1
0.247257 0.794537 1
0.880903 0.884016 1
1 0.872755 1
0 1 1
0 1 1
0.370291 1 1
0.825254 1 1
1 1 1
