LUTs/ARRI_LogC_to_Rec709.cube
TITLE "Generated by Resolve"
LUT_3D_SIZE 33
0 0 0
0.0205997 0 0
0.0498512 0 0
0.0756847 0 0
0.101335 0 0
0.12987 0 0
0.162066 0 0
0.199207 0 0
0.241703 0 0
0.289555 0 0
0.343252 0 0
0.401511 0 0
0.466529 0 0
0.531167 0 0
0.587121 0 0
0.643778 0 0
0.700832 0 0
0.756878 0 0
0.812146 0 0
0.865385 0 0
0.914809 0 0
0.961425 0 0
1 0 0
1 0 0
1 0 0
1 0 0
1 0 0
1 0 0
1 0 0
1 0 0
1 0 0
1 0 0
1 0 0
0 0.0106813 0
0.00238041 0.00683604 0
0.0399939 0.000854505 0
0.0680858 0 0
0.0936599 0 0
0.121431 0 0
0.153231 0 0
0.190158 0 0
0.232578 0 0
0.280339 0 0
0.334157 0 0
0.392401 0 0
0.457008 0 0
0.522469 0 0
0.57937 0 0
0.636347 0 0
0.694087 0 0
0.750759 0 0
0.806409 0 0
0.860456 0 0
0.910414 0 0
0.957504 0 0
1 0 0
1 0 0
1 0 0
1 0 0
1 0 0
1 0 0
1 0 0
1 0 0
1 0 0
1 0 0
1 0 0
0 0.0319677 0
0 0.0313725 0
0.0202029 0.0251469 0
0.057435 0.0196841 0
0.0873884 0.0155489 0
0.117144 0.0114443 0
0.148714 0.00694286 0
0.184222 0.00178531 0
0.225757 0 0
0.272801 0 0
0.325963 0 0
0.38407 0 0
0.448142 0 0
0.513909 0 0
0.571878 0 0
0.629282 0 0
0.687221 0 0
0.744335 0 0
0.800641 0 0
0.855116 0 0
0.905715 0 0
0.953445 0 0
0.998703 0 0
1 0 0
1 0 0
1 0 0
1 0 0
1 0 0
1 0 0
1 0 0
1 0 0
1 0 0
1 0 0
0 0.0540169 0
0 0.0542611 0
0 0.0521706 0
0.0383917 0.0449531 0
0.0748455 0.0400854 0
0.107454 0.0357214 0
0.142931 0.0310063 0
0.181521 0.0255436 0
0.22356 0.0194247 0
0.269947 0.0126497 0
0.322087 0.00451667 0
0.379355 0 0
0.442817 0 0
0.50901 0 0
0.567575 0 0
0.625254 0 0
0.68365 0 0
0.741299 0 0
0.798138 0 0
0.853361 0 0
0.904723 0 0
0.953246 0 0
0.999283 0 0
1 0 0
1 0 0
1 0 0
1 0 0
1 0 0
1 0 0
1 0 0
1 0 0
1 0 0
1 0 0
0 0.0756237 0
0 0.0755474 0
0 0.0755627 0
0.00331121 0.0731365 0
0.0567483 0.0651255 0
0.0935836 0.0608835 0
0.13283 0.0554971 0
0.174258 0.0504921 0
0.220356 0.0444038 0
0.26949 0.0377508 0
0.322225 0.0305333 0
0.378943 0.0227817 0
0.441764 0.0145571 0
0.50782 0.00627146 0
0.566918 0 0
0.624964 0 0
0.683833 0 0
0.742138 0 0
0.799603 0 0
0.855406 0 0
0.907408 0 0
0.956695 0 0
1 0 0
1 0 0
1 0 0
1 0 0
1 0 0
1 0 0
1 0 0
1 0 0
1 0 0
1 0 0
1 0 0
0 0.0981003 0
0 0.0977035 0
0 0.0996262 0
0 0.0977951 0
0.016968 0.0957504 0
0.0774701 0.0866255 0
0.118334 0.0823987 0
0.164401 0.0763714 0
0.212726 0.0707256 0
0.265782 0.0642405 0
0.322408 0.0573129 0
0.38114 0.0504616 0
0.444114 0.0436713 0
0.510155 0.0370794 0
0.56965 0.0308537 0
0.627985 0.0246891 0
0.687236 0.0184176 0
0.746044 0.0123751 0
0.804105 0.00669871 0
0.860594 0.00164797 0
0.913329 0 0
0.963455 0 0
1 0 0
1 0 0
1 0 0
1 0 0
1 0 0
1 0 0
1 0 0
1 0.00198367 0
1 0.00567636 0
1 0.00947585 0
1 0.0132143 0
0 0.123766 0
0 0.122881 0
0 0.125719 0
0 0.125978 0
0 0.124483 0
0.0316472 0.122347 0
0.103288 0.111238 0
0.150118 0.106859 0
0.203265 0.10045 0
0.258595 0.094377 0
0.319203 0.0875105 0
0.382254 0.0806744 0
0.448081 0.0742962 0
0.515404 0.0686656 0
0.575311 0.0636759 0
0.63386 0.0589609 0
0.693523 0.0543526 0
0.75288 0.0500343 0
0.811521 0.046067 0
0.868452 0.0424506 0
0.921828 0.0397498 0
0.972625 0.0379034 0
1 0.0366979 0
1 0.0365454 0
1 0.0372168 0
1 0.0384375 0
1 0.0405737 0
1 0.0432746 0
1 0.046128 0
1 0.049546 0
1 0.0529183 0
1 0.0565805 0
1 0.0601205 0
0 0.15314 0
0 0.1523 0
0 0.155337 0
0 0.158221 0
0 0.157809 0
0.00982681 0.156924 0
0.0489662 0.154498 0
0.134844 0.141665 0
0.189761 0.136843 0
0.249226 0.13048 0
0.312078 0.124086 0
0.379278 0.117281 0
0.449821 0.110658 0
0.520821 0.104814 0
0.582803 0.100328 0
0.642359 0.096376 0
0.70222 0.0924544 0
0.761807 0.0890669 0
0.820706 0.0860456 0
0.878004 0.0833143 0
0.93167 0.0814679 0
0.982788 0.0803693 0
1 0.0798352 0
1 0.0802472 0
1 0.081178 0
1 0.0829786 0
1 0.08542 0
1 0.0881514 0
1 0.0913863 0
1 0.094789 0
1 0.0984817 0
1 0.102312 0
1 0.10573 0
0 0.187564 0
0 0.187106 0
0 0.190112 0
0 0.194812 0
0 0.197284 0
0 0.197147 0
0.0231632 0.196933 0
0.0714275 0.194156 0
0.173388 0.178988 0
0.236881 0.173831 0
0.302525 0.167819 0
0.371633 0.161517 0
0.446357 0.155108 0
0.522744 0.149371 0
0.588861 0.14461 0
0.651133 0.140826 0
0.712428 0.137209 0
0.772656 0.134234 0
0.831464 0.131456 0
0.888792 0.129427 0
0.94229 0.128023 0
0.993011 0.127138 0
1 0.127169 0
1 0.127733 0
1 0.129213 0
1 0.131319 0
1 0.133806 0
1 0.136965 0
1 0.140154 0
1 0.143893 0
1 0.147845 0
1 0.151827 0
1 0.155947 0
0 0.227054 0
0 0.227237 0
0 0.230228 0
0 0.235966 0
0 0.241138 0
0 0.243626 0
0.00077821 0.244038 0
0.0409857 0.244083 0
0.101244 0.240314 0
0.218997 0.223224 0
0.29192 0.217502 0
0.361547 0.212512 0
0.437613 0.206485 0
0.51783 0.2009 0
0.588464 0.195987 0
0.654765 0.191928 0
0.719493 0.187991 0
0.781949 0.184848 0
0.841962 0.18204 0
0.899809 0.180041 0
0.952956 0.178546 0
1 0.178012 0
1 0.177966 0
1 0.178851 0
1 0.180377 0
1 0.1823 0
1 0.185168 0
1 0.188403 0
1 0.192233 0
1 0.196536 0
1 0.200809 0
1 0.205493 0
1 0.209827 0
0 0.271641 0
0 0.272633 0
0 0.275898 0
0 0.2822 0
0 0.289525 0
0 0.294881 0
0 0.297566 0
0.0173648 0.298329 0
0.065095 0.298466 0
0.138705 0.292882 0
0.272496 0.273457 0
0.35346 0.266773 0
0.424979 0.263249 0
0.506661 0.257511 0
0.580774 0.252872 0
0.650004 0.248325 0
0.718379 0.244099 0
0.784024 0.24007 0
0.84712 0.236805 0
0.906554 0.234043 0
0.961013 0.232288 0
1 0.231357 0
1 0.231159 0
1 0.232136 0
1 0.233707 0
1 0.236286 0
1 0.239506 0
1 0.243275 0
1 0.247547 0
1 0.251987 0
1 0.256809 0
1 0.261555 0
1 0.266377 0
0 0.32195 0
0 0.323903 0
0 0.327611 0
0 0.334371 0
0 0.342687 0
0 0.350652 0
0 0.355825 0
0 0.358373 0
0.0397498 0.358648 0
0.0947738 0.358312 0
0.184283 0.349599 0
0.330617 0.328344 0
0.421881 0.320333 0
0.491615 0.318593 0
0.568383 0.313588 0
0.638392 0.308858 0
0.708888 0.304158 0
0.77705 0.299351 0
0.842908 0.295277 0
0.905257 0.291814 0
0.962402 0.289631 0
1 0.288289 0
1 0.288289 0
1 0.289052 0
1 0.290974 0
1 0.293706 0
1 0.296986 0
1 0.301045 0
1 0.305287 0
1 0.31014 0
1 0.314824 0
1 0.31989 0
1 0.324453 0
0 0.377447 0
0 0.380377 0
0 0.384649 0
0 0.391562 0
0 0.400397 0
0 0.409903 0
0 0.417258 0
0 0.421866 0
0.0132906 0.423392 0
0.0678264 0.422995 0
0.130388 0.421653 0
0.236667 0.408576 0
0.395895 0.385199 0
0.494347 0.37554 0
0.552483 0.376349 0
0.623621 0.371466 0
0.69424 0.366583 0
0.764172 0.362097 0
0.832212 0.357748 0
0.897475 0.35436 0
0.957015 0.351644 0
1 0.350256 0
1 0.349813 0
1 0.350439 0
1 0.352087 0
1 0.354406 0
1 0.357733 0
1 0.36141 0
1 0.365713 0
1 0.370153 0
1 0.374823 0
1 0.37966 0
1 0.383978 0
0 0.43827 0
0 0.442191 0
0 0.447166 0
0 0.454368 0
0 0.463401 0
0 0.47364 0
0 0.482841 0
0 0.489311 0
0 0.492882 0
0.0408942 0.492302 0
0.100649 0.4907 0
0.170611 0.48719 0
0.296162 0.468742 0
0.462242 0.444694 0
0.554742 0.43508 0
0.60734 0.438468 0
0.678782 0.433997 0
0.750423 0.429084 0
0.819028 0.424689 0
0.885496 0.421042 0
0.946899 0.418173 0
1 0.416449 0
1 0.415534 0
1 0.4159 0
1 0.416968 0
1 0.419196 0
1 0.42208 0
1 0.42562 0
1 0.429618 0
1 0.433692 0
1 0.438087 0
1 0.442573 0
1 0.446433 0
0 0.504067 0
0 0.508385 0
0 0.513436 0
0 0.520287 0
0 0.528679 0
0 0.538247 0
0 0.548074 0
0 0.555367 0
0 0.560235 0
0.0141756 0.561563 0
0.0754864 0.559564 0
0.139879 0.557946 0
0.220706 0.552666 0
0.365072 0.532326 0
0.514626 0.511055 0
0.610651 0.500664 0
0.6645 0.504005 0
0.733562 0.500679 0
0.806867 0.495109 0
0.87332 0.491249 0
0.935103 0.488441 0
0.993286 0.486213 0
1 0.485206 0
1 0.4851 0
1 0.485634 0
1 0.487251 0
1 0.489372 0
1 0.492256 0
1 0.495415 0
1 0.498665 0
1 0.502022 0
1 0.505425 0
1 0.508431 0
0 0.566476 0
0 0.570291 0
0 0.57467 0
0 0.580468 0
0 0.587777 0
0 0.596399 0
0 0.606165 0
0 0.61445 0
0 0.620615 0
0 0.624079 0
0.0515145 0.623392 0
0.11693 0.621393 0
0.186511 0.619593 0
0.279561 0.612985 0
0.426917 0.593103 0
0.568734 0.573938 0
0.669566 0.562463 0
0.724178 0.563973 0
0.787793 0.562249 0
0.859281 0.556771 0
0.923033 0.553338 0
0.980484 0.551019 0
1 0.549706 0
1 0.548943 0
1 0.548943 0
1 0.549676 0
1 0.550973 0
1 0.552514 0
1 0.554482 0
1 0.55668 0
1 0.558862 0
1 0.561044 0
1 0.562646 0
0 0.626139 0
0 0.62974 0
0 0.634028 0
0 0.639643 0
0 0.646906 0
0 0.655497 0
0 0.665141 0
0 0.674449 0
0 0.681712 0
0 0.686534 0
0.0277256 0.687846 0
0.0934615 0.685542 0
0.161547 0.683742 0
0.235431 0.681285 0
0.339269 0.67274 0
0.482704 0.65156 0
0.624903 0.631739 0
0.727626 0.619074 0
0.783215 0.619532 0
0.838666 0.61976 0
0.903456 0.615503 0
0.96463 0.61117 0
1 0.609049 0
1 0.607843 0
1 0.607217 0
1 0.60705 0
1 0.60763 0
1 0.608621 0
1 0.609796 0
1 0.611185 0
1 0.612543 0
1 0.613886 0
1 0.614816 0
0 0.685283 0
0 0.689113 0
0 0.693858 0
0 0.699596 0
0 0.70663 0
0 0.715053 0
0 0.724514 0
0 0.733989 0
0 0.742138 0
0 0.748012 0
0.00732433 0.750698 0
0.0688487 0.749432 0
0.138201 0.746334 0
0.207599 0.744442 0
0.287846 0.741176 0
0.392889 0.729931 0
0.538964 0.707118 0
0.678233 0.687327 0
0.781369 0.673472 0
0.838651 0.672129 0
0.885069 0.673609 0
0.940398 0.671046 0
0.998108 0.666911 0
1 0.663676 0
1 0.662226 0
1 0.661555 0
1 0.661448 0
1 0.661738 0
1 0.662211 0
1 0.662928 0
1 0.663554 0
1 0.664179 0
1 0.6645 0
0 0.744884 0
0 0.748943 0
0 0.753841 0
0 0.759548 0
0 0.766323 0
0 0.774319 0
0 0.783337 0
0 0.792737 0
0 0.801129 0
0 0.807614 0
0 0.811231 0
0.045243 0.811261 0
0.113893 0.807706 0
0.182345 0.804929 0
0.255711 0.802396 0
0.336767 0.797498 0
0.446647 0.782467 0
0.591882 0.758968 0
0.726894 0.738857 0
0.82858 0.724117 0
0.887114 0.72079 0
0.927016 0.722606 0
0.973053 0.721813 0
1 0.718837 0
1 0.715557 0
1 0.713161 0
1 0.712062 0
1 0.711711 0
1 0.711513 0
1 0.711574 0
1 0.711574 0
1 0.711803 0
1 0.711498 0
0 0.803891 0
0 0.808042 0
0 0.81265 0
0 0.818402 0
0 0.824842 0
0 0.832273 0
0 0.840604 0
0 0.849607 0
0 0.857832 0
0 0.864485 0
0 0.868955 0
0.0246586 0.869581 0
0.0889906 0.866621 0
0.158007 0.862165 0
0.227741 0.859236 0
0.302434 0.855528 0
0.382116 0.847669 0
0.500145 0.829023 0
0.642466 0.805661 0
0.771267 0.785718 0
0.867277 0.770901 0
0.927611 0.76553 0
0.966827 0.766476 0
1 0.767529 0
1 0.766186 0
1 0.763668 0
1 0.761135 0
1 0.759106 0
1 0.757733 0
1 0.757092 0
1 0.756558 0
1 0.756054 0
1 0.75555 0
0 0.860014 0
0 0.864042 0
0 0.868696 0
0 0.873838 0
0 0.879789 0
0 0.886595 0
0 0.894057 0
0 0.902602 0
0 0.910109 0
0 0.916823 0
0 0.921141 0
0.00726329 0.922469 0
0.0658274 0.919814 0
0.134051 0.914687 0
0.202548 0.910582 0
0.274235 0.906676 0
0.343771 0.901167 0
0.430076 0.890181 0
0.555779 0.868284 0
0.692164 0.845655 0
0.810681 0.826703 0
0.901396 0.812146 0
0.962661 0.805341 0
1 0.804929 0
1 0.806683 0
1 0.806928 0
1 0.805707 0
1 0.803738 0
1 0.801526 0
1 0.799649 0
1 0.798108 0
1 0.796963 0
1 0.795865 0
0 0.913451 0
0 0.916762 0
0 0.921019 0
0 0.925658 0
0 0.931228 0
0 0.93698 0
0 0.943801 0
0 0.95111 0
0 0.95816 0
0 0.964172 0
0 0.968521 0
0 0.970092 0
0.0462959 0.968002 0
0.111101 0.963302 0
0.179294 0.957656 0
0.249134 0.953185 0
0.316228 0.947692 0
0.387427 0.94023 0
0.482933 0.925643 0
0.611933 0.902098 0
0.737697 0.881132 0
0.845869 0.863325 0
0.932448 0.849149 0
0.993271 0.841581 0
1 0.840024 0
1 0.841215 0
1 0.842573 0
1 0.842756 0
1 0.841703 0
1 0.840345 0
1 0.838331 0
1 0.836271 0
1 0.834119 0
0 0.964508 0
0 0.968078 0
0 0.971542 0
0 0.975738 0
0 0.980316 0
0 0.985382 0
0 0.991058 0
0 0.997314 0
0 1 0
0 1 0
0 1 0
0 1 0
0.0289921 1 0
0.089601 1 0
0.157153 1 0
0.226612 0.996109 0
0.292454 0.990387 0
0.357183 0.983719 0
0.43389 0.973602 0
0.538048 0.955917 0
0.662348 0.932876 0
0.777966 0.913497 0
0.878843 0.897154 0
0.96025 0.883711 0
1 0.875624 0
1 0.872908 0
1 0.873472 0
1 0.875425 0
1 0.876585 0
1 0.876783 0
1 0.875914 0
1 0.874601 0
1 0.872511 0
0 1 0
0 1 0
0 1 0
0 1 0
0 1 0
0 1 0
0 1 0
0 1 0
0 1 0
0 1 0
0 1 0
0 1 0
0.0142214 1 0
0.0706645 1 0
0.135973 1 0
0.205631 1 0
0.271504 1 0
0.333364 1 0
0.400061 1 0
0.483146 1 0
0.592203 0.982132 0
0.708446 0.961501 0
0.816037 0.943771 0
0.909285 0.928405 0
0.985504 0.915908 0
1 0.908095 0
1 0.904707 0
1 0.904479 0
1 0.905806 0
1 0.908003 0
1 0.909148 0
1 0.90927 0
1 0.908354 0
0 1 0
0 1 0
0 1 0
0 1 0
0 1 0
0 1 0
0 1 0
0 1 0
0 1 0
0 1 0
0 1 0
0 1 0
0.00161746 1 0
0.0543221 1 0
0.116442 1 0
0.18613 1 0
0.252979 1 0
0.312703 1 0
0.375128 1 0
0.446372 1 0
0.53492 1 0
0.644358 1 0
0.753292 0.987549 0
0.852781 0.971695 0
0.93904 0.957687 0
1 0.946288 0
1 0.938643 0
1 0.935058 0
1 0.934157 0
1 0.935317 0
1 0.937285 0
1 0.939422 0
1 0.940368 0
0 1 0
0 1 0
0 1 0
0 1 0
0 1 0
0 1 0
0 1 0
0 1 0
0 1 0
0 1 0
0 1 0
0 1 0
0 1 0
0.040177 1 0
0.0992752 1 0
0.1682 1 0
0.236011 1 0
0.295232 1 0
0.355856 1 0
0.419608 1 0
0.494072 1 0
0.587747 1 0
0.694499 1 0
0.796155 1 0
0.887617 0.999054 0
0.967544 0.986786 0
1 0.976638 0
1 0.969528 0
1 0.965347 0
1 0.964538 0
1 0.965286 0
1 0.967269 0
1 0.969619 0
0 1 0
0 1 0
0 1 0
0 1 0
0 1 0
0 1 0
0 1 0
0 1 0
0 1 0
0 1 0
0 1 0
0 1 0
0 1 0
0.0285191 1 0
0.0850385 1 0
0.15256 1 0
0.221515 1 0
0.28043 1 0
0.339498 1 0
0.400046 1 0
0.466163 1 0
0.545052 1 0
0.642618 1 0
0.743923 1 0
0.837858 1 0
0.922301 1 0
0.995972 1 0
1 1 0
1 1 0
1 0.996506 0
1 0.994278 0
1 0.99469 0
1 0.996338 0
0 1 0
0 1 0
0 1 0
0 1 0
0 1 0
0 1 0
0 1 0
0 1 0
0 1 0
