LUTs/ARRI_LogC_to_Rec709.cube
TITLE "Generated by Resolve"
LUT_3D_SIZE 9
0 0 0
0.101335 0 0
0.241703 0 0
0.466529 0 0
0.700832 0 0
0.914809 0 0
1 0 0
1 0 0
1 0 0
0 0.0756237 0
0.0567483 0.0651255 0
0.220356 0.0444038 0
0.441764 0.0145571 0
0.683833 0 0
0.907408 0 0
1 0 0
1 0 0
1 0 0
0 0.187564 0
0 0.197284 0
0.173388 0.178988 0
0.446357 0.155108 0
0.712428 0.137209 0
0.94229 0.128023 0
1 0.129213 0
1 0.140154 0
1 0.155947 0
0 0.377447 0
0 0.400397 0
0.0132906 0.423392 0
0.395895 0.385199 0
0.69424 0.366583 0
0.957015 0.351644 0
1 0.352087 0
1 0.365713 0
1 0.383978 0
0 0.626139 0
0 0.646906 0
0 0.681712 0
0.161547 0.683742 0
0.624903 0.631739 0
0.903456 0.615503 0
1 0.607217 0
1 0.609796 0
1 0.614816 0
0 0.860014 0
0 0.879789 0
0 0.910109 0
0.0658274 0.919814 0
0.343771 0.901167 0
0.810681 0.826703 0
1 0.806683 0
1 0.801526 0
1 0.795865 0
0 1 0
0 1 0
0 1 0
0.00161746 1 0
0.252979 1 0
0.53492 1 0
0.93904 0.957687 0
1 0.934157 0
1 0.940368 0
0 1 0
0 1 0
0 1 0
0 1 0
0.196658 1 0
0.430167 1 0
0.74638 1 0
1 1 0
1 1 0
0 1 0
0 1 0
0 1 0
0 1 0
0.159319 1 0
0.39089 1 0
0.61323 1 0
0.909773 1 0
1 1 0
0 0 0.114015
0.104799 0 0.0953689
0.254383 0 0.0728161
0.47361 0 0.0352941
0.705226 0 0
0.918822 0 0
1 0 0
1 0 0
1 0 0
0 0.071809 0.0590829
0.0574502 0.0594339 0.0482643
0.201984 0.044358 0.0352331
0.430411 0.0143893 0.00712596
0.678889 0 0
0.90544 0 0
1 0 0
1 0 0
1 0 0
0 0.187549 0
0.0129854 0.18352 0.00456245
0.176104 0.179538 0
0.439979 0.158846 0
0.694926 0.145602 0
0.930785 0.136278 0
1 0.136965 0
1 0.147433 0
1 0.163607 0.00959792
0 0.384192 0
0 0.394553 0
0.0543679 0.419623 0.0124361
0.399481 0.389761 0
0.697215 0.371435 0
0.953185 0.358373 0
1 0.360845 0
1 0.375662 0
1 0.393927 0
0 0.634897 0
0 0.64744 0
0.0229648 0.668864 0
0.197726 0.681147 0.00334173
0.630808 0.635935 0
0.909621 0.617716 0
1 0.609812 0
1 0.611368 0
1 0.615885 0
0 0.869734 0
0 0.882322 0
1.5259e-05 0.895582 0
0.105943 0.913268 0
0.371344 0.895293 0
0.812222 0.826154 0
1 0.807187 0
1 0.798154 0
1 0.793484 0
0 1 0
0 1 0
0 1 0
0.0556344 1 0
0.282582 1 0
0.541619 1 0
0.938094 0.954437 0
1 0.933425 0
1 0.938628 0
0 1 0
0 1 0
0 1 0
0.0339818 1 0
0.222965 1 0
0.455024 1 0
0.74461 1 0
1 1 0
1 1 0
0 1 0
0 1 0
0 1 0
0.0301213 1 0
0.187427 1 0
0.418677 1 0
0.625696 1 0
0.90811 1 0
1 1 0
0 0 0.284153
0.0948959 0 0.264225
0.247883 0 0.239246
0.489921 0 0.197131
0.730632 0 0.15285
0.939895 0 0.118135
1 0 0.0988937
1 0 0.0927138
1 0 0.0937819
0 0.0617227 0.238087
0.0500801 0.051606 0.213611
0.206653 0.0343938 0.195621
0.446494 0.00277714 0.161639
0.689509 0 0.132311
0.91426 0 0.113024
1 0 0.107576
1 0 0.115145
1 0 0.129168
0 0.182132 0.165667
0.00598154 0.181018 0.16614
0.175311 0.177356 0.164675
0.421607 0.163348 0.154238
0.686717 0.14931 0.14284
0.927138 0.139345 0.135409
1 0.139834 0.137957
1 0.15024 0.150027
1 0.16672 0.16672
0 0.384451 0.0895857
0 0.398871 0.103044
0.131456 0.404929 0.122087
0.396887 0.392355 0.108034
0.693965 0.373831 0.090425
0.933043 0.365255 0.100435
1 0.369299 0.112749
1 0.383612 0.129519
1 0.400763 0.147478
0 0.637781 0.0303502
0 0.654139 0.0464027
0.0840162 0.660121 0.0740368
0.236255 0.674907 0.150622
0.63151 0.637415 0.0525978
0.90869 0.617746 0.0227359
1 0.609064 0.0183413
1 0.610483 0.0265354
1 0.614923 0.0383917
0 0.874678 0
0 0.889235 0.00523384
0.0425422 0.889326 0.032639
0.179294 0.894286 0.120714
0.405509 0.883665 0.118044
0.809659 0.822141 0
1 0.803464 0
1 0.79237 0
1 0.787823 0
0 1 0
0 1 0
0.0099031 1 0
0.149935 1 0.0727703
0.31519 1 0.0971237
0.555642 1 0.0404669
0.933913 0.947997 0
1 0.930739 0
1 0.932525 0
0 1 0
0 1 0
0 1 0
0.134707 1 0.0413977
0.257771 1 0.0875715
0.485634 1 0.0513161
0.740444 1 0
1 1 0
1 1 0
0 1 0
0 1 0
0 1 0
0.131426 1 0.0260014
0.23299 1 0.0904707
0.453712 1 0.0659037
0.645106 1 0.0195926
0.902968 1 0
1 1 0
0 0 0.573617
0.0765545 0 0.553384
0.229343 0 0.525902
0.472328 0 0.476219
0.732998 0 0.426062
0.966232 0 0.384771
1 0 0.359167
1 0 0.349737
1 0 0.349767
0 0.06421 0.508446
0.032166 0.0367895 0.498619
0.189822 0.019852 0.479316
0.439933 0 0.441398
0.713466 0 0.405112
0.955291 0 0.377539
1 0 0.367102
1 0 0.3738
1 0 0.388632
0 0.151919 0.45507
0 0.152468 0.442802
0.164279 0.166888 0.450065
0.431876 0.150195 0.431571
0.717235 0.132342 0.410895
0.95758 0.12369 0.395056
1 0.126101 0.394339
1 0.138125 0.407492
1 0.155383 0.428092
0 0.375616 0.366964
0 0.390341 0.3841
0.117647 0.398749 0.394949
0.389868 0.386725 0.385763
0.661173 0.37528 0.37528
0.905196 0.365972 0.371664
1 0.368521 0.376272
1 0.381613 0.39086
1 0.397436 0.40795
0 0.63183 0.301839
0 0.648905 0.321859
0.0685893 0.658747 0.334615
0.339773 0.645792 0.335378
0.627527 0.6309 0.320195
0.897078 0.61004 0.293523
1 0.602884 0.298314
1 0.606424 0.311589
1 0.611978 0.323262
0 0.868849 0.252171
0 0.883925 0.269856
0.0215 0.887236 0.275532
0.279561 0.86273 0.273671
0.451133 0.860334 0.333822
0.79794 0.810773 0.22359
1 0.788922 0.184787
1 0.779461 0.177783
1 0.774762 0.175662
0 1 0.226856
0 1 0.233021
0 1 0.227558
0.228107 1 0.221088
0.369879 1 0.298177
0.585214 0.989151 0.264576
0.919844 0.935164 0.139406
1 0.923278 0.103212
1 0.916503 0.0994278
0 1 0.210269
0 1 0.208164
0 1 0.197406
0.198718 1 0.191073
0.340566 1 0.274571
0.528878 1 0.266743
0.734661 1 0.216052
1 1 0.103761
1 1 0.0779278
0 1 0.193973
0 1 0.190814
0 1 0.181292
0.186282 1 0.178378
0.337789 1 0.26276
0.496132 1 0.275624
0.678294 1 0.246296
0.888518 1 0.196643
1 1 0.0927596
0 0 0.866346
0.0567636 0 0.848173
0.20856 0 0.824079
0.450538 0 0.780362
0.715908 0 0.733883
0.952834 0 0.694301
1 0 0.671092
1 0 0.663584
1 0 0.665446
0 0.0586404 0.824948
0.012665 0.0206607 0.8
0.171313 0.00404364 0.783551
0.422019 0 0.750774
0.700908 0 0.717403
0.950927 0 0.692332
1 0 0.684138
1 0 0.691341
1 0 0.705196
0 0.155535 0.757794
0 0.159854 0.739757
0.150057 0.155962 0.760678
0.418387 0.140154 0.745022
0.710384 0.122423 0.726207
0.969802 0.108522 0.711254
1 0.105425 0.708721
1 0.114672 0.719158
1 0.130556 0.735439
0 0.32961 0.669963
0 0.33167 0.678538
0.0131533 0.328481 0.679164
0.375494 0.37554 0.700603
0.674647 0.360174 0.686305
0.935668 0.347036 0.673838
1 0.347875 0.672572
1 0.360861 0.682383
1 0.376837 0.695903
0 0.620966 0.620005
0 0.637705 0.639353
0.0525063 0.646357 0.650568
0.318578 0.63534 0.64213
0.625193 0.62208 0.631403
0.861723 0.607095 0.617441
1 0.599939 0.611978
1 0.601755 0.615305
1 0.605463 0.620386
0 0.860639 0.573373
0 0.874708 0.589944
0.00972 0.876921 0.59443
0.256748 0.855283 0.574823
0.551675 0.824338 0.553796
0.792859 0.796323 0.528542
0.993713 0.774273 0.497505
1 0.765789 0.495338
1 0.763622 0.501167
0 1 0.544396
0 1 0.549523
0 1 0.542336
0.199771 1 0.513024
0.485405 0.971588 0.485206
0.634928 0.958694 0.520882
0.909529 0.91899 0.429191
1 0.907805 0.398062
1 0.901732 0.395193
0 1 0.525139
0 1 0.522255
0 1 0.509529
0.167834 1 0.473854
0.450584 1 0.449119
0.581689 1 0.506218
0.759243 1 0.477119
1 1 0.387366
1 1 0.359686
0 1 0.507668
0 1 0.504234
0 1 0.490806
0.153994 1 0.455543
0.436866 1 0.434867
0.566613 1 0.505272
0.725216 1 0.494835
0.884535 1 0.462043
1 1 0.374746
0 0 1
0.0385443 0 1
0.189914 0 1
0.4309 0 1
0.699321 0 1
0.938247 0 0.961959
1 0 0.939498
1 0 0.932921
1 0 0.935744
0 0.0346838 1
0 0.00596628 1
0.155398 0 1
0.406241 0 1
0.688365 0 0.988128
0.941558 0 0.964172
1 0 0.95671
1 0 0.96437
1 0 0.978683
0 0.165667 1
0 0.159335 1
0.138582 0.147402 1
0.406836 0.132448 1
0.701183 0.114855 1
0.962097 0.100618 0.985107
1 0.0975204 0.982254
1 0.106493 0.993164
1 0.121111 1
0 0.316487 0.974884
0 0.326268 0.972351
0 0.341924 0.931502
0.364096 0.367147 0.974243
0.664881 0.351705 0.960327
0.929061 0.338811 0.947829
1 0.337148 0.946456
1 0.346197 0.956039
1 0.357855 0.968261
0 0.572534 0.864256
0 0.573922 0.871
0 0.561746 0.865476
0.177447 0.525795 0.841367
0.610452 0.6103 0.901396
0.870176 0.591608 0.882673
1 0.579919 0.870893
1 0.578973 0.869276
1 0.58201 0.870008
0 0.849271 0.844678
0 0.861967 0.85977
0 0.862104 0.862104
0.23592 0.83859 0.840421
0.528405 0.80975 0.813458
0.784863 0.78471 0.789914
0.961425 0.767407 0.773739
1 0.759487 0.767483
1 0.756603 0.76614
0 1 0.816281
0 1 0.819944
0 1 0.811826
0.184039 0.999115 0.781674
0.460349 0.961395 0.745373
0.716564 0.926329 0.717754
0.903593 0.905928 0.698833
1 0.89456 0.681895
1 0.889494 0.683131
0 1 0.793942
0 1 0.790433
0 1 0.777829
0.151965 1 0.745708
0.422614 1 0.709026
0.685496 1 0.685542
0.806409 1 0.720592
1 1 0.660029
1 1 0.643656
0 1 0.776318
0 1 0.772595
0 1 0.760952
0.138338 1 0.729686
0.407996 1 0.694087
0.674418 1 0.674022
0.778332 1 0.725994
0.913451 1 0.715602
1 1 0.647913
0 0 1
0.0241703 0 1
0.176089 0 1
0.416648 0 1
0.687022 0 1
0.927626 0 1
1 0 1
1 0 1
1 0 1
0 0.0125429 1
0 0 1
0.144472 0 1
0.395926 0 1
0.680446 0 1
0.93576 0 1
1 0 1
1 0 1
1 0 1
0 0.169802 1
0 0.150164 1
0.132204 0.143328 1
0.400641 0.128939 1
0.695979 0.111498 1
0.957519 0.0969253 1
1 0.0941634 1
1 0.103288 1
1 0.11783 1
0 0.318975 1
0 0.340154 1
0 0.352468 1
0.358892 0.36434 1
0.660121 0.348882 1
0.925017 0.335515 1
1 0.333104 1
1 0.341176 1
1 0.351614 1
0 0.54641 1
0 0.549767 1
0 0.545342 1
0.132158 0.531518 1
0.601175 0.603387 1
0.861082 0.583764 1
1 0.572198 1
1 0.569589 1
1 0.569345 1
0 0.815625 1
0 0.817014 1
0 0.799359 1
0.109636 0.741024 0.978317
0.36286 0.670573 0.919188
0.770443 0.772671 1
0.965637 0.753567 0.982666
1 0.743328 0.972198
1 0.738476 0.966766
0 1 1
0 1 1
0 1 1
0.163546 0.982666 0.990082
0.436728 0.942931 0.951675
0.695064 0.912291 0.922301
0.897704 0.897597 0.908721
1 0.889982 0.901335
1 0.886854 0.899733
0 1 1
0 1 1
0 1 0.993194
0.140978 1 0.961288
0.409918 1 0.924605
0.669551 1 0.892958
0.868162 1 0.87599
1 1 0.87068
1 1 0.86247
0 1 0.992035
0 1 0.988281
0 1 0.976654
0.127535 1 0.945388
0.395575 1 0.909834
0.65655 1 0.877913
0.857206 1 0.864134
0.952163 1 0.900084
1 1 0.857939
0 0 1
0.0145418 0 1
0.167269 0 1
0.407843 0 1
0.679698 0 1
0.921752 0 1
1 0 1
1 0 1
1 0 1
0 0.00109865 1
0 0 1
0.138735 0 1
0.391119 0 1
0.677546 0 1
0.934539 0 1
1 0 1
1 0 1
1 0 1
0 0.173419 1
0 0.141283 1
0.130724 0.143587 1
0.400107 0.129885 1
0.695674 0.112444 1
0.957717 0.0978408 1
1 0.0953231 1
1 0.104631 1
1 0.119112 1
0 0.331716 1
0 0.354864 1
0 0.36054 1
0.359121 0.366354 1
0.66041 0.350896 1
0.925383 0.337057 1
1 0.333898 1
1 0.340917 1
1 0.350271 1
0 0.541604 1
0 0.54725 1
0 0.546746 1
0.0807965 0.546487 1
0.599023 0.60296 1
0.857954 0.582101 1
1 0.569207 1
1 0.565728 1
1 0.56463 1
0 0.783871 1
0 0.778759 1
0 0.757061 1
0.0558175 0.707927 1
0.332204 0.665278 1
0.760632 0.764584 1
0.957565 0.746456 1
1 0.736797 1
1 0.731838 1
0 1 1
0 0.998322 1
0 0.97792 1
0.0895247 0.925826 1
0.311635 0.839887 1
0.551339 0.788891 0.980117
0.888747 0.890379 1
1 0.881743 1
1 0.877028 1
0 1 1
0 1 1
0 1 1
0.123751 1 1
0.390646 1 1
0.648936 1 1
0.850721 1 1
1 1 1
1 1 1
0 1 1
0 1 1
0 1 1
0.12163 1 1
0.388891 1 1
0.650477 1 1
0.84773 1 1
1 1 1
1 1 1
0 0 1
0.00723278 0 1
0.160708 0 1
0.401587 0 1
0.674769 0 1
0.918227 0 1
1 0 1
1 0 1
1 0 1
0 0 1
0 0 1
0.135348 0 1
0.389288 0 1
0.67744 0 1
0.935653 0 1
1 0 1
1 0 1
1 0 1
0 0.1776 1
0 0.137118 1
0.131594 0.145922 1
0.40206 0.132753 1
0.697414 0.115175 1
0.960067 0.10074 1
1 0.098497 1
1 0.107927 1
1 0.122301 1
0 0.346746 1
0 0.366781 1
0 0.368383 1
0.36173 0.370459 1
0.662806 0.354925 1
0.927626 0.340551 1
1 0.336812 1
1 0.342718 1
1 0.350866 1
0 0.542458 1
0 0.549554 1
0 0.554681 1
0.0454566 0.557671 1
0.598962 0.604364 1
0.856626 0.582101 1
1 0.568307 1
1 0.563607 1
1 0.561944 1
0 0.766217 1
0 0.761013 1
0 0.74197 1
0.0395209 0.701747 1
0.288563 0.675227 1
0.755795 0.761242 1
0.951873 0.742 1
1 0.73257 1
1 0.728099 1
0 0.975555 1
0 0.963317 1
0 0.933806 1
0.0124666 0.871092 1
0.247257 0.794537 1
0.491341 0.751965 1
0.880903 0.884016 1
1 0.876677 1
1 0.872755 1
0 1 1
0 1 1
0 1 1
0.0710613 1 1
0.306966 0.99498 1
0.498711 0.895705 1
0.733791 0.910185 1
1 1 1
1 1 1
0 1 1
0 1 1
0 1 1
0.104738 1 1
0.370291 1 1
0.628809 1 1
0.825254 1 1
0.981064 1 1
1 1 1
