LUTs/Sony_SLog3_Rec709.cube
TITLE "Generated by Resolve"
LUT_3D_SIZE 9
0 0 0
0.10547 0 0
0.337743 0 0
0.619638 0 0
0.867979 0 0
1 0 0
1 0 0
1 0 0
1 0 0
0 0.0752728 0
0.056199 0.0645304 0
0.263325 0.042359 0
0.536156 0.00830091 0
0.824384 0 0
1 0 0
1 0 0
1 0 0
1 0 0
0 0.235737 0
0.00062562 0.230594 0
0.206851 0.215137 0
0.508644 0.186069 0
0.77583 0.158114 0
0.99823 0.154482 0
1 0.147631 0
1 0.13872 0
1 0.133852 0
0 0.439796 0
0 0.441337 0
0.1364 0.443671 0
0.419089 0.418708 0
0.735332 0.398611 0
1 0.37731 0
1 0.367422 0
1 0.365942 0
1 0.36434 0
0 0.677607 0
0 0.680201 0
0.0768444 0.689662 0
0.347692 0.677226 0
0.651408 0.646021 0
0.93785 0.638498 0
1 0.627329 0
1 0.6168 0
1 0.609476 0
0 0.912428 0
0 0.914977 0
0.0565042 0.926345 0
0.298695 0.919921 0
0.605737 0.889067 0
0.873274 0.861036 0
1 0.854627 0
1 0.843915 0
1 0.837934 0
0 1 0
0 1 0
0.0383307 1 0
0.25594 1 0
0.546578 1 0
0.84004 1 0
1 1 0
1 1 0
1 1 0
0 1 0
0 1 0
0.0184329 1 0
0.220432 1 0
0.50193 1 0
0.799649 1 0
1 1 0
1 1 0
1 1 0
0 1 0
0 1 0
0.0059205 1 0
0.202548 1 0
0.47985 1 0
0.778363 1 0
0.998856 1 0
1 1 0
1 1 0
0 0 0.115251
0.0979782 0 0.0989548
0.327764 0 0.0630503
0.611887 0 0.0171664
0.862745 0 0
1 0 0
1 0 0
1 0 0
1 0 0
0 0.0708629 0.0610513
0.0537423 0.0620279 0.0528878
0.271305 0.0392004 0.0311284
0.558618 0 0
0.825391 0 0
1 0 0
1 0 0
1 0 0
1 0 0
0 0.232456 0
0 0.227878 0
0.206943 0.215671 0.010605
0.489799 0.186908 0.0134737
0.764752 0.167071 0
1 0.14931 0
1 0.136278 0
1 0.128267 0
1 0.124468 0
0 0.438437 0
0 0.440223 0
0.137179 0.443198 0
0.421134 0.421363 0
0.736004 0.397421 0
0.988983 0.380804 0.00267033
1 0.376654 0.0227359
1 0.373037 0.0131533
1 0.370855 0.0028687
0 0.676966 0
0 0.678981 0
0.0774853 0.68864 0
0.345113 0.677317 0
0.652857 0.648264 0
0.93724 0.636637 0
1 0.623819 0
1 0.610422 0
1 0.606088 0
0 0.911528 0
0 0.913497 0
0.055436 0.924346 0
0.294438 0.91783 0
0.597223 0.890089 0
0.871702 0.860227 0
1 0.850797 0
1 0.838956 0
1 0.832837 0
0 1 0
0 1 0
0.035584 1 0
0.250126 1 0
0.538781 1 0
0.833188 1 0
1 1 0
1 1 0
1 1 0
0 1 0
0 1 0
0.0146487 1 0
0.214206 1 0
0.493721 1 0
0.790204 1 0
1 1 0
1 1 0
1 1 0
0 1 0
0 1 0
0.00175479 1 0
0.196368 1 0
0.471702 1 0
0.770077 1 0
0.993515 1 0
1 1 0
1 1 0
0 0 0.391119
0.0829023 0 0.365728
0.310185 0 0.320043
0.596445 0 0.263859
0.850935 0 0.21912
1 0 0.181933
1 0 0.15108
1 0 0.131609
1 0 0.12256
0 0.0600748 0.309438
0.0432441 0.0522164 0.294987
0.258869 0.0314641 0.265385
0.546609 0 0.218418
0.816693 0 0.178592
1 0 0.148989
1 0 0.126375
1 0 0.112856
1 0 0.106722
0 0.224994 0.219211
0 0.221485 0.215763
0.204135 0.212772 0.20737
0.496544 0.18529 0.180682
0.792645 0.159609 0.155932
1 0.147341 0.144488
1 0.136904 0.134813
1 0.129595 0.128054
1 0.125933 0.124636
0 0.435859 0.122332
0 0.438392 0.129152
0.138384 0.442802 0.138643
0.421988 0.42295 0.150759
0.724804 0.397742 0.153643
0.988067 0.385763 0.154696
1 0.376242 0.119585
1 0.368185 0.109529
1 0.364019 0.106996
0 0.677501 0.0554055
0 0.679622 0.063035
0.0803845 0.690028 0.0781262
0.346471 0.679469 0.0755322
0.655177 0.651362 0.102388
0.939239 0.638254 0.0556344
1 0.626703 0.100328
1 0.617426 0.141741
1 0.612406 0.148943
0 0.913603 0.0334325
0 0.915282 0.0393835
0.0575723 0.925795 0.0532845
0.294347 0.919097 0.0516213
0.595117 0.891463 0.0302739
0.87245 0.861646 0.0680705
1 0.849821 0.00488289
1 0.837507 0
1 0.83122 0
0 1 0.0208591
0 1 0.0221256
0.0360418 1 0.0303807
0.24828 1 0.0301518
0.535393 1 0.00727855
0.827665 1 0
1 1 0.0359503
1 1 0
1 1 0
0 1 0.00602731
0 1 0.00335698
0.0137942 1 0.00700389
0.211673 1 0.00671397
0.489784 1 0
0.786191 1 0
1 1 0.00402838
1 1 0.0135653
1 1 0
0 1 0
0 1 0
0.000534066 1 0
0.193759 1 0
0.46772 1 0
0.766064 1 0
0.989548 1 0
1 1 0.0069276
1 1 0.00469978
0 0 0.71696
0.0631723 0 0.693553
0.287053 0 0.650416
0.573938 0 0.594614
0.831617 0 0.547738
1 0 0.507408
1 0 0.472435
1 0 0.449622
1 0 0.438804
0 0.0432746 0.638834
0.0259556 0.0359045 0.623468
0.238666 0.016846 0.593194
0.526024 0 0.543694
0.79913 0 0.498848
1 0 0.463813
1 0 0.435538
1 0 0.417624
1 0 0.409186
0 0.209888 0.54522
0 0.207111 0.538994
0.190967 0.200671 0.527916
0.482506 0.175219 0.496681
0.781048 0.150515 0.46508
1 0.1393 0.445686
1 0.129778 0.428305
1 0.123003 0.415793
1 0.119554 0.409461
0 0.424811 0.43508
0 0.427848 0.437552
0.131243 0.433677 0.442802
0.415625 0.416876 0.425956
0.727275 0.391806 0.401053
0.999283 0.379004 0.38819
1 0.369299 0.378424
1 0.362127 0.371221
1 0.35845 0.367559
0 0.669703 0.344244
0 0.672251 0.345693
0.0760815 0.683436 0.356298
0.340047 0.674235 0.346746
0.650355 0.647639 0.353979
0.920027 0.633646 0.350164
1 0.619272 0.362982
1 0.607782 0.336889
1 0.603098 0.321111
0 0.909041 0.292302
0 0.910796 0.290822
0.0539712 0.921111 0.299809
0.288136 0.915038 0.291173
0.588159 0.887617 0.261524
0.867201 0.857343 0.291997
1 0.845823 0.217609
1 0.833982 0.210452
1 0.828977 0.22977
0 1 0.253605
0 1 0.247425
0.0332952 1 0.250675
0.243214 1 0.243351
0.529229 1 0.213581
0.821149 1 0.182254
1 1 0.239597
1 1 0.161685
1 0.99968 0.149065
0 1 0.220829
0 1 0.211429
0.0114137 1 0.210895
0.207752 1 0.206195
0.484794 1 0.179538
0.782559 1 0.14902
1 1 0.17348
1 1 0.205692
1 1 0.178637
0 1 0.203006
0 1 0.192706
0 1 0.191257
0.190509 1 0.188205
0.463523 1 0.164004
0.762768 1 0.133471
0.983688 1 0.127062
1 1 0.191974
1 1 0.19028
0 0 0.98201
0.0479286 0 0.963287
0.268421 0 0.927413
0.554971 0 0.878874
0.815198 0 0.839124
1 0 0.807218
1 0 0.779507
1 0 0.761379
1 0 0.752728
0 0.0301976 0.919661
0.0121767 0.0229343 0.907942
0.221302 0.00502022 0.884489
0.507149 0 0.842344
0.781811 0 0.803433
1 0 0.776913
1 0 0.754818
1 0 0.740307
1 0 0.733303
0 0.196582 0.848295
0 0.193942 0.845212
0.1785 0.189212 0.839979
0.467979 0.164981 0.814786
0.767926 0.140291 0.787717
1 0.129122 0.771984
1 0.119661 0.756985
1 0.112825 0.745708
1 0.109377 0.739895
0 0.412787 0.758236
0 0.415656 0.762615
0.12221 0.42237 0.770428
0.40354 0.406195 0.756436
0.715785 0.381079 0.733471
0.98912 0.368078 0.721843
1 0.358465 0.712627
1 0.351308 0.705211
1 0.347646 0.701289
0 0.658228 0.676081
0 0.66067 0.678309
0.0674144 0.672175 0.689265
0.328237 0.663752 0.680812
0.64155 0.639368 0.656611
0.924788 0.621851 0.639078
1 0.609567 0.626657
1 0.59971 0.616678
1 0.594522 0.611444
0 0.898421 0.624353
0 0.899718 0.621057
0.043473 0.909545 0.628077
0.274311 0.903792 0.617609
0.572992 0.876249 0.584787
0.856016 0.847333 0.584237
1 0.833906 0.555367
1 0.82034 0.585519
1 0.813931 0.579248
0 1 0.578119
0 1 0.567849
0.0232853 1 0.567605
0.229633 1 0.557122
0.514061 1 0.522759
0.807675 1 0.485176
1 1 0.522835
1 0.995026 0.447547
1 0.988876 0.439857
0 1 0.536065
0 1 0.521614
0.000671397 1 0.517479
0.195285 1 0.50901
0.470893 1 0.477424
0.76968 1 0.439841
0.989181 1 0.424918
1 1 0.481834
1 1 0.439078
0 1 0.512901
0 1 0.4972
0 1 0.492042
0.178897 1 0.485206
0.449989 1 0.455497
0.750774 1 0.41825
0.971908 1 0.395926
1 1 0.458961
1 1 0.462318
0 0 1
0.0324559 0 1
0.250767 0 1
0.53727 0 1
0.800916 0 1
1 0 1
1 0 1
1 0 1
1 0 1
0 0.0184939 1
0.00015259 0.0116274 1
0.206088 0 1
0.490654 0 1
0.768475 0 1
1 0 1
1 0 1
1 0 1
1 0 1
0 0.186313 1
0 0.184207 1
0.169863 0.181384 1
0.457313 0.15877 1
0.75877 0.13434 1
1 0.123217 1
1 0.113771 1
1 0.106828 1
1 0.103441 1
0 0.404852 1
0 0.407492 1
0.117891 0.415106 1
0.395789 0.399634 1
0.708583 0.374517 1
0.9832 0.360998 1
1 0.351202 1
1 0.343816 0.997009
1 0.340002 0.994598
0 0.650874 0.956298
0 0.653025 0.961181
0.0632181 0.664622 0.973877
0.320272 0.656748 0.969696
0.632639 0.631785 0.949905
0.917098 0.612741 0.936858
1 0.599603 0.929335
1 0.589151 0.922713
1 0.583673 0.919142
0 0.890867 0.916976
0 0.891249 0.916899
0.0356451 0.900206 0.925261
0.262455 0.894377 0.919142
0.558907 0.866163 0.891142
0.846342 0.838178 0.863447
1 0.821241 0.846723
1 0.80882 0.834516
1 0.802563 0.828351
0 1 0.884993
0 1 0.878019
0.0132753 1 0.87866
0.216037 1 0.87187
0.497948 1 0.841871
0.792554 1 0.807935
1 0.991699 0.811933
1 0.980545 0.778836
1 0.973953 0.808743
0 1 0.852003
0 1 0.840574
0 1 0.837369
0.18146 1 0.831708
0.454688 1 0.803647
0.754101 1 0.768353
0.973861 1 0.747906
1 1 0.77731
1 1 0.733547
0 1 0.832868
0 1 0.819974
0 1 0.815625
0.16524 1 0.811109
0.433738 1 0.784146
0.735012 1 0.748669
0.957168 1 0.727489
1 1 0.74229
1 1 0.760082
0 0 1
0.0196994 0 1
0.235157 0 1
0.52134 0 1
0.787976 0 1
1 0 1
1 0 1
1 0 1
1 0 1
0 0.00791943 1
0 0.00135805 1
0.192432 0 1
0.474922 0 1
0.756497 0 1
1 0 1
1 0 1
1 0 1
1 0 1
0 0.17705 1
0 0.175448 1
0.16199 0.174243 1
0.447501 0.153079 1
0.75024 0.128923 1
1 0.117922 1
1 0.108614 1
1 0.1019 1
1 0.0986496 1
0 0.39765 1
0 0.400214 1
0.114076 0.408453 1
0.389044 0.393896 1
0.702419 0.369039 1
0.978637 0.355322 1
1 0.345647 1
1 0.338277 1
1 0.334462 1
0 0.644648 1
0 0.646738 1
0.0603647 0.658473 1
0.314244 0.651347 1
0.626001 0.626245 1
0.912047 0.606241 1
1 0.592767 1
1 0.582071 1
1 0.576486 1
0 0.885496 1
0 0.885328 1
0.0307164 0.893675 1
0.254337 0.888106 1
0.549081 0.859739 1
0.837995 0.830839 1
1 0.813611 1
1 0.801068 1
1 0.794751 1
0 1 1
0 1 1
0.0075227 1 1
0.207614 1 1
0.487465 1 1
0.783185 1 1
0.999634 0.985824 1
1 0.973816 1
1 0.967971 1
0 1 1
0 1 1
0 1 1
0.173404 1 1
0.444572 1 1
0.744457 1 1
0.964981 1 0.98468
1 1 0.987961
1 1 0.968719
0 1 1
0 1 1
0 1 1
0.157534 1 1
0.423484 1 1
0.725093 1 0.985763
0.948226 1 0.966873
1 1 0.955825
1 1 0.972549
0 0 1
0.0112764 0 1
0.22475 0 1
0.510597 0 1
0.779187 0 1
1 0 1
1 0 1
1 0 1
1 0 1
0 0.00077821 1
0 0 1
0.183185 0 1
0.464698 0 1
0.748348 0 1
0.996445 0 1
1 0 1
1 0 1
1 0 1
0 0.170809 1
0 0.169528 1
0.156634 0.169345 1
0.440711 0.149142 1
0.744183 0.12517 1
1 0.114168 1
1 0.104936 1
1 0.0984054 1
1 0.0952316 1
0 0.392676 1
0 0.395163 1
0.111376 0.403738 1
0.384314 0.389868 1
0.697978 0.365148 1
0.975311 0.351232 1
1 0.341634 1
1 0.334264 1
1 0.330434 1
0 0.640253 1
0 0.642252 1
0.0582437 0.654047 1
0.309957 0.647395 1
0.62118 0.622187 1
0.908309 0.601511 1
1 0.587808 1
1 0.576959 1
1 0.571313 1
0 0.881544 1
0 0.880995 1
0.0271153 0.888899 1
0.248585 0.883497 1
0.542123 0.85507 1
0.832059 0.825605 1
1 0.808194 1
1 0.795636 1
1 0.789319 1
0 1 1
0 1 1
0.00331121 1 1
0.20174 1 1
0.480217 1 1
0.776455 0.998627 1
0.993729 0.980743 1
1 0.968719 1
1 0.962905 1
0 1 1
0 1 1
0 1 1
0.167971 1 1
0.43743 1 1
0.738018 1 1
0.959319 1 1
1 1 1
1 1 1
0 1 1
0 1 1
0 1 1
0.152422 1 1
0.416663 1 1
0.718669 1 1
0.942657 1 1
1 1 1
1 1 1
0 0 1
0.00721752 0 1
0.219745 0 1
0.505379 0 1
0.774899 0 1
1 0 1
1 0 1
1 0 1
1 0 1
0 0 1
0 0 1
0.178653 0 1
0.45977 0 1
0.744396 0 1
0.992905 0 1
1 0 1
1 0 1
1 0 1
0 0.167788 1
0 0.166659 1
0.153994 0.166964 1
0.437369 0.147189 1
0.741161 0.123308 1
1 0.112306 1
1 0.10312 1
1 0.0966659 1
1 0.0935378 1
0 0.390204 1
0 0.39266 1
0.109987 0.401389 1
0.381979 0.387869 1
0.69575 0.363226 1
0.973617 0.349203 1
1 0.339635 1
1 0.33225 1
1 0.32842 1
0 0.638071 1
0 0.640024 1
0.0571756 0.651835 1
0.307836 0.645411 1
0.618799 0.620127 1
0.906416 0.59913 1
1 0.585306 1
1 0.574395 1
1 0.568704 1
0 0.879561 1
0 0.878813 1
0.0253147 0.886503 1
0.245731 0.881193 1
0.538674 0.85272 1
0.829114 0.822995 1
1 0.805508 1
1 0.79292 1
1 0.786603 1
0 1 1
0 1 1
0.00117494 1 1
0.19884 1 1
0.476631 1 1
0.773266 0.996078 1
0.990387 0.977798 1
1 0.966186 1
1 0.960388 1
0 1 1
0 1 1
0 1 1
0.165301 1 1
0.433906 1 1
0.734813 1 1
0.956497 1 1
1 1 1
1 1 1
0 1 1
0 1 1
0 1 1
0.149477 1 1
0.413291 1 1
0.71545 1 1
0.939879 1 1
1 1 1
1 1 1
