LUTs/Sony_SLog3_Rec709.cube
TITLE "Generated by Resolve"
LUT_3D_SIZE 5
0 0 0
0.337743 0 0
0.867979 0 0
1 0 0
1 0 0
0 0.235737 0
0.206851 0.215137 0
0.77583 0.158114 0
1 0.147631 0
1 0.133852 0
0 0.677607 0
0.0768444 0.689662 0
0.651408 0.646021 0
1 0.627329 0
1 0.609476 0
0 1 0
0.0383307 1 0
0.546578 1 0
1 1 0
1 1 0
0 1 0
0.0059205 1 0
0.47985 1 0
0.998856 1 0
1 1 0
0 0 0.391119
0.310185 0 0.320043
0.850935 0 0.21912
1 0 0.15108
1 0 0.12256
0 0.224994 0.219211
0.204135 0.212772 0.20737
0.792645 0.159609 0.155932
1 0.136904 0.134813
1 0.125933 0.124636
0 0.677501 0.0554055
0.0803845 0.690028 0.0781262
0.655177 0.651362 0.102388
1 0.626703 0.100328
1 0.612406 0.148943
0 1 0.0208591
0.0360418 1 0.0303807
0.535393 1 0.00727855
1 1 0.0359503
1 1 0
0 1 0
0.000534066 1 0
0.46772 1 0
0.989548 1 0
1 1 0.00469978
0 0 0.98201
0.268421 0 0.927413
0.815198 0 0.839124
1 0 0.779507
1 0 0.752728
0 0.196582 0.848295
0.1785 0.189212 0.839979
0.767926 0.140291 0.787717
1 0.119661 0.756985
1 0.109377 0.739895
0 0.658228 0.676081
0.0674144 0.672175 0.689265
0.64155 0.639368 0.656611
1 0.609567 0.626657
1 0.594522 0.611444
0 1 0.578119
0.0232853 1 0.567605
0.514061 1 0.522759
1 1 0.522835
1 0.988876 0.439857
0 1 0.512901
0 1 0.492042
0.449989 1 0.455497
0.971908 1 0.395926
1 1 0.462318
0 0 1
0.235157 0 1
0.787976 0 1
1 0 1
1 0 1
0 0.17705 1
0.16199 0.174243 1
0.75024 0.128923 1
1 0.108614 1
1 0.0986496 1
0 0.644648 1
0.0603647 0.658473 1
0.626001 0.626245 1
1 0.592767 1
1 0.576486 1
0 1 1
0.0075227 1 1
0.487465 1 1
0.999634 0.985824 1
1 0.967971 1
0 1 1
0 1 1
0.423484 1 1
0.948226 1 0.966873
1 1 0.972549
0 0 1
0.219745 0 1
0.774899 0 1
1 0 1
1 0 1
0 0.167788 1
0.153994 0.166964 1
0.741161 0.123308 1
1 0.10312 1
1 0.0935378 1
0 0.638071 1
0.0571756 0.651835 1
0.618799 0.620127 1
1 0.585306 1
1 0.568704 1
0 1 1
0.00117494 1 1
0.476631 1 1
0.990387 0.977798 1
1 0.960388 1
0 1 1
0 1 1
0.413291 1 1
0.939879 1 1
1 1 1
