LUTs/Sony_SLog3_Rec709.cube
TITLE "Generated by Resolve"
LUT_3D_SIZE 33
0 0 0
0 0 0
0.0198825 0 0
0.0611276 0 0
0.10547 0 0
0.153841 0 0
0.208728 0 0
0.270588 0 0
0.337743 0 0
0.406867 0 0
0.476631 0 0
0.548577 0 0
0.619638 0 0
0.687541 0 0
0.751171 0 0
0.810666 0 0
0.867979 0 0
0.925566 0 0
0.984466 0 0
1 0 0
1 0 0
1 0 0
1 0 0
1 0 0
1 0 0
1 0 0
1 0 0
1 0 0
1 0 0
1 0 0
1 0 0
1 0 0
1 0 0
0 0 0
0 0 0
0.00537118 0 0
0.0505074 0 0
0.0928511 0 0
0.138476 0 0
0.190372 0 0
0.25037 0 0
0.316716 0 0
0.386389 0 0
0.457053 0 0
0.529274 0 0
0.60116 0 0
0.670359 0 0
0.735317 0 0
0.795911 0 0
0.853819 0 0
0.911513 0 0
0.970581 0 0
1 0 0
1 0 0
1 0 0
1 0 0
1 0 0
1 0 0
1 0 0
1 0 0
1 0 0
1 0 0
1 0 0
1 0 0
1 0 0
1 0 0
0 0.0111086 0
0 0.00766003 0
6.10361e-05 0.00486763 0
0.0374762 0.00134279 0
0.0738231 0 0
0.120516 0 0
0.175799 0 0
0.236133 0 0
0.302876 0 0
0.373312 0 0
0.444221 0 0
0.51632 0 0
0.588418 0 0
0.658167 0 0
0.723674 0 0
0.784588 0 0
0.842725 0 0
0.900328 0 0
0.959258 0 0
1 0 0
1 0 0
1 0 0
1 0 0
1 0 0
1 0 0
1 0 0
1 0 0
1 0 0
1 0 0
1 0 0
1 0 0
1 0 0
1 0 0
0 0.0412299 0
0 0.037644 0
0 0.0359045 0
0.0254063 0.0328374 0
0.0696727 0.0302281 0
0.115908 0.0257725 0
0.159243 0.020325 0
0.212177 0.0139925 0
0.274098 0.00633249 0
0.34522 0 0
0.421286 0 0
0.497856 0 0
0.573617 0 0
0.645838 0 0
0.713741 0 0
0.776547 0 0
0.835645 0 0
0.89369 0 0
0.952865 0 0
1 0 0
1 0 0
1 0 0
1 0 0
1 0 0
1 0 0
1 0 0
1 0 0
1 0 0
1 0 0
1 0 0
1 0 0
1 0 0
1 0 0
0 0.0752728 0
0 0.0719158 0
0 0.0703899 0
0.0157321 0.0686656 0
0.056199 0.0645304 0
0.10425 0.0619974 0
0.15523 0.0569772 0
0.212863 0.0492561 0
0.263325 0.042359 0
0.323522 0.0348058 0
0.388922 0.0269474 0
0.458762 0.0186313 0
0.536156 0.00830091 0
0.615808 0 0
0.691493 0 0
0.760723 0 0
0.824384 0 0
0.885374 0 0
0.946609 0 0
1 0 0
1 0 0
1 0 0
1 0 0
1 0 0
1 0 0
1 0 0
1 0 0
1 0 0
1 0 0
1 0 0
1 0 0
1 0 0
1 0 0
0 0.111772 0
0 0.108461 0
0 0.106844 0
0.00396735 0.105852 0
0.0464027 0.102388 0
0.0892653 0.0982681 0
0.14139 0.0956283 0
0.198428 0.0897383 0
0.264271 0.0812085 0
0.332311 0.0700999 0
0.385 0.0638132 0
0.446479 0.0568399 0
0.51165 0.0499275 0
0.58024 0.0427558 0
0.652888 0.034638 0
0.72578 0.0264286 0
0.795605 0.0190585 0
0.862028 0.0127413 0
0.927398 0.00694286 0
0.992874 0.00129702 0
1 0 0
1 0 0
1 0 0
1 0 0
1 0 0
1 0 0
1 0 0
1 0 0
1 0 0
1 0 0
1 0 0
1 0 0
1 0 0
0 0.1505 0
0 0.147204 0
0 0.145235 0
0 0.144594 0
0.0324254 0.143084 0
0.0789197 0.13814 0
0.124819 0.134218 0
0.181964 0.131197 0
0.246036 0.124514 0
0.31606 0.115801 0
0.397833 0.102632 0
0.460624 0.0938735 0
0.513649 0.0888533 0
0.575586 0.0829023 0
0.64004 0.0772869 0
0.703731 0.0724193 0
0.767559 0.0677501 0
0.831861 0.0631266 0
0.897414 0.0584726 0
0.964889 0.0534981 0
1 0.0483558 0
1 0.0433661 0
1 0.0388647 0
1 0.0348821 0
1 0.0313573 0
1 0.0282597 0
1 0.0255741 0
1 0.02327 0
1 0.0213169 0
1 0.0197147 0
1 0.0184176 0
1 0.0174563 0
1 0.0167849 0
0 0.191714 0
0 0.188495 0
0 0.186435 0
0 0.186114 0
0.0173648 0.185321 0
0.0627451 0.183062 0
0.11339 0.176867 0
0.163745 0.17293 0
0.226307 0.169436 0
0.297856 0.162219 0
0.371221 0.153658 0
0.453498 0.141924 0
0.535561 0.129244 0
0.594125 0.123018 0
0.647166 0.11931 0
0.705852 0.115358 0
0.765209 0.112123 0
0.823041 0.109957 0
0.881209 0.108202 0
0.941726 0.106126 0
1 0.103197 0
1 0.0995956 0
1 0.0958267 0
1 0.0921492 0
1 0.0887312 0
1 0.0856336 0
1 0.082887 0
1 0.0804761 0
1 0.0784314 0
1 0.0767529 0
1 0.0753796 0
1 0.0743572 0
1 0.07364 0
0 0.235737 0
0 0.23267 0
0 0.230686 0
0 0.230671 0
0.00062562 0.230594 0
0.0458381 0.229099 0
0.0955825 0.226398 0
0.15108 0.219272 0
0.206851 0.215137 0
0.274846 0.211185 0
0.352514 0.203967 0
0.427848 0.195941 0
0.508644 0.186069 0
0.59855 0.17261 0
0.673411 0.163088 0
0.726513 0.159625 0
0.77583 0.158114 0
0.82948 0.156634 0
0.885054 0.155566 0
0.940856 0.155032 0
0.99823 0.154482 0
1 0.153506 0
1 0.151934 0
1 0.14992 0
1 0.147631 0
1 0.14522 0
1 0.142885 0
1 0.140688 0
1 0.13872 0
1 0.137026 0
1 0.135653 0
1 0.134569 0
1 0.133852 0
0 0.282719 0
0 0.279973 0
0 0.278233 0
0 0.278492 0
0 0.279164 0
0.0276646 0.278584 0
0.0769513 0.277043 0
0.132189 0.27335 0
0.19295 0.265583 0
0.254414 0.261143 0
0.326848 0.256947 0
0.408103 0.250401 0
0.485832 0.242878 0
0.565774 0.234531 0
0.653269 0.223194 0
0.737377 0.212131 0
0.801801 0.206394 0
0.849714 0.205325 0
0.896284 0.2056 0
0.947784 0.205524 0
1 0.205097 0
1 0.204593 0
1 0.20412 0
1 0.203586 0
1 0.202823 0
1 0.201907 0
1 0.200763 0
1 0.199542 0
1 0.198276 0
1 0.197086 0
1 0.196048 0
1 0.195209 0
1 0.194614 0
0 0.332555 0
0 0.330236 0
0 0.328878 0
0 0.329076 0
0 0.33048 0
0.0093843 0.331151 0
0.0585184 0.330465 0
0.112261 0.328878 0
0.173999 0.323659 0
0.239902 0.315602 0
0.306508 0.310933 0
0.381415 0.306905 0
0.464286 0.301259 0
0.544915 0.293996 0
0.623636 0.286809 0
0.704433 0.278477 0
0.787015 0.268849 0
0.861204 0.261128 0
0.919371 0.257694 0
0.965606 0.257664 0
1 0.258228 0
1 0.258061 0
1 0.257328 0
1 0.256458 0
1 0.25565 0
1 0.254948 0
1 0.254337 0
1 0.253758 0
1 0.253254 0
1 0.252766 0
1 0.252308 0
1 0.251896 0
1 0.251637 0
0 0.384878 0
0 0.383078 0
0 0.382162 0
0 0.382544 0
0 0.384695 0
0 0.386358 0
0.0413519 0.386587 0
0.0945907 0.385916 0
0.153445 0.383856 0
0.221927 0.37673 0
0.292149 0.368551 0
0.361883 0.363821 0
0.437263 0.360174 0
0.521813 0.354986 0
0.603876 0.348165 0
0.680705 0.341833 0
0.754864 0.336034 0
0.830228 0.329351 0
0.906645 0.321859 0
0.976043 0.315572 0
1 0.312337 0
1 0.311925 0
1 0.311986 0
1 0.311666 0
1 0.310994 0
1 0.310201 0
1 0.309392 0
1 0.30869 0
1 0.308095 0
1 0.307622 0
1 0.307256 0
1 0.306981 0
1 0.306798 0
0 0.439796 0
0 0.438499 0
0 0.438025 0
0 0.438682 0
0 0.441337 0
0 0.443748 0
0.0260014 0.444755 0
0.0787213 0.4448 0
0.1364 0.443671 0
0.201297 0.44033 0
0.275608 0.431327 0
0.348226 0.423301 0
0.419089 0.418708 0
0.494957 0.415091 0
0.579751 0.410269 0
0.661219 0.40412 0
0.735332 0.398611 0
0.805188 0.394186 0
0.874464 0.389792 0
0.946654 0.384222 0
1 0.37731 0
1 0.371374 0
1 0.368307 0
1 0.367483 0
1 0.367422 0
1 0.3673 0
1 0.366979 0
1 0.366491 0
1 0.365942 0
1 0.365423 0
1 0.364965 0
1 0.364599 0
1 0.36434 0
0 0.497368 0
0 0.496513 0
0 0.496391 0
0 0.497246 0
0 0.500069 0
0 0.502998 0
0.0112154 0.504723 0
0.0632944 0.505333 0
0.119921 0.504799 0
0.182742 0.502663 0
0.254017 0.497307 0
0.332143 0.486809 0
0.405493 0.479026 0
0.476814 0.474357 0
0.553048 0.47042 0
0.636286 0.466072 0
0.715892 0.460914 0
0.787945 0.456413 0
0.855817 0.452995 0
0.921981 0.450141 0
0.990936 0.44625 0
1 0.440864 0
1 0.434867 0
1 0.429755 0
1 0.426474 0
1 0.424872 0
1 0.424231 0
1 0.423957 0
1 0.423758 0
1 0.423545 0
1 0.423285 0
1 0.423072 0
1 0.422904 0
0 0.556848 0
0 0.556329 0
0 0.556451 0
0 0.557412 0
0 0.559976 0
0 0.563165 0
0 0.565713 0
0.0485084 0.566735 0
0.10396 0.566644 0
0.165087 0.564996 0
0.233112 0.561425 0
0.309667 0.55378 0
0.389136 0.54258 0
0.462165 0.535302 0
0.534646 0.530571 0
0.610269 0.526986 0
0.690944 0.52372 0
0.768505 0.519951 0
0.839063 0.516518 0
0.905562 0.513726 0
0.971466 0.511101 0
1 0.508217 0
1 0.504433 0
1 0.499809 0
1 0.494911 0
1 0.490379 0
1 0.486793 0
1 0.484276 0
1 0.482689 0
1 0.481727 0
1 0.481132 0
1 0.480766 0
1 0.480552 0
0 0.617288 0
0 0.616983 0
0 0.617227 0
0 0.618204 0
0 0.62031 0
0 0.623819 0
0 0.626719 0
0.0348058 0.628 0
0.0889906 0.628244 0
0.148486 0.627161 0
0.214771 0.624323 0
0.287968 0.619471 0
0.368154 0.610391 0
0.447013 0.599542 0
0.520684 0.592615 0
0.593042 0.588129 0
0.666926 0.585061 0
0.744335 0.582895 0
0.819654 0.580392 0
0.888823 0.577737 0
0.954772 0.575097 0
1 0.572381 0
1 0.569619 0
1 0.566842 0
1 0.563607 0
1 0.559945 0
1 0.556191 0
1 0.55259 0
1 0.549432 0
1 0.546807 0
1 0.544823 0
1 0.543435 0
1 0.542489 0
0 0.677607 0
0 0.677378 0
0 0.677607 0
0 0.678447 0
0 0.680201 0
0 0.683711 0
0 0.686946 0
0.0236362 0.688807 0
0.0768444 0.689662 0
0.134859 0.689296 0
0.19939 0.687205 0
0.270634 0.683253 0
0.347692 0.677226 0
0.428748 0.667292 0
0.507149 0.656733 0
0.580301 0.650187 0
0.651408 0.646021 0
0.722713 0.643595 0
0.796796 0.642359 0
0.869444 0.640818 0
0.93785 0.638498 0
1 0.635721 0
1 0.632837 0
1 0.63003 0
1 0.627329 0
1 0.624765 0
1 0.622156 0
1 0.61944 0
1 0.6168 0
1 0.614359 0
1 0.612284 0
1 0.610636 0
1 0.609476 0
0 0.73698 0
0 0.736706 0
0 0.736934 0
0 0.737819 0
0 0.739605 0
0 0.743175 0
0 0.746609 0
0.0159762 0.749203 0
0.0681773 0.750546 0
0.124743 0.750729 0
0.187381 0.749264 0
0.256733 0.745907 0
0.331716 0.740963 0
0.410651 0.733852 0
0.4916 0.723232 0
0.568795 0.713024 0
0.640452 0.706889 0
0.709346 0.703197 0
0.777783 0.701289 0
0.84799 0.70071 0
0.918547 0.699641 0
0.984771 0.697246 0
1 0.694301 0
1 0.691279 0
1 0.688365 0
1 0.685603 0
1 0.683055 0
1 0.68072 0
1 0.67866 0
1 0.676829 0
1 0.675242 0
1 0.673945 0
1 0.673014 0
0 0.795422 0
0 0.795361 0
0 0.795789 0
0 0.796765 0
0 0.79852 0
0 0.801846 0
0 0.805386 0
0.0114595 0.808606 0
0.0626078 0.810285 0
0.117739 0.810864 0
0.178439 0.809903 0
0.245747 0.807034 0
0.319203 0.802396 0
0.395987 0.796658 0
0.475242 0.78854 0
0.555825 0.777173 0
0.630915 0.767437 0
0.700221 0.761746 0
0.766415 0.758434 0
0.831312 0.756909 0
0.898177 0.756497 0
0.965118 0.755367 0
1 0.752865 0
1 0.749783 0
1 0.74667 0
1 0.74374 0
1 0.741009 0
1 0.738537 0
1 0.736355 0
1 0.734462 0
1 0.732937 0
1 0.731746 0
1 0.730907 0
0 0.853849 0
0 0.85388 0
0 0.854353 0
0 0.855314 0
0 0.856931 0
0 0.859663 0
0 0.863523 0
0.00918593 0.866957 0
0.0591897 0.868849 0
0.113008 0.869642 0
0.171817 0.869001 0
0.236988 0.866453 0
0.308659 0.862013 0
0.384329 0.856306 0
0.461128 0.849836 0
0.540932 0.840314 0
0.619928 0.828443 0
0.692134 0.819257 0
0.758465 0.814008 0
0.82118 0.811032 0
0.882826 0.809628 0
0.945251 0.809033 0
1 0.807721 0
1 0.805234 0
1 0.802243 0
1 0.799191 0
1 0.796292 0
1 0.793667 0
1 0.791348 0
1 0.789364 0
1 0.787732 0
1 0.78648 0
1 0.785611 0
0 0.912428 0
0 0.912428 0
0 0.912795 0
0 0.913603 0
0 0.914977 0
0 0.91725 0
0 0.920989 0
0.00782788 0.924376 0
0.0565042 0.926345 0
0.10901 0.927184 0
0.166018 0.92665 0
0.229068 0.924285 0
0.298695 0.919921 0
0.373114 0.914061 0
0.44889 0.907591 0
0.526085 0.899886 0
0.605737 0.889067 0
0.682307 0.877104 0
0.75111 0.868605 0
0.81387 0.863798 0
0.873274 0.861036 0
0.930709 0.85948 0
0.98735 0.858396 0
1 0.856916 0
1 0.854627 0
1 0.851865 0
1 0.849012 0
1 0.846311 0
1 0.843915 0
1 0.841825 0
1 0.840131 0
1 0.838834 0
1 0.837934 0
0 0.969497 0
0 0.969314 0
0 0.969451 0
0 0.96997 0
0 0.970993 0
0 0.972763 0
0 0.97612 0
0.00691234 0.979004 0
0.0532235 0.981186 0
0.104479 0.981872 0
0.159792 0.981292 0
0.220798 0.978943 0
0.28838 0.974594 0
0.36141 0.968566 0
0.436637 0.961715 0
0.512078 0.954543 0
0.590112 0.945373 0
0.668742 0.933608 0
0.741909 0.921996 0
0.806592 0.91429 0
0.865812 0.909895 0
0.921141 0.907149 0
0.973358 0.905257 0
1 0.903761 0
1 0.902159 0
1 0.900191 0
1 0.897856 0
1 0.895415 0
1 0.893095 0
1 0.891051 0
1 0.889357 0
1 0.888029 0
1 0.887114 0
0 1 0
0 1 0
0 1 0
0 1 0
0 1 0
0 1 0
0 1 0
0.00437934 1 0
0.0489662 1 0
0.0990158 1 0
0.152911 1 0
0.212039 1 0
0.277699 1 0
0.349065 1 0
0.423682 1 0
0.498451 1 0
0.574807 0.994934 0
0.653071 0.984436 0
0.729335 0.972137 0
0.797726 0.96141 0
0.858305 0.954696 0
0.913298 0.950729 0
0.96376 0.947997 0
1 0.945891 0
1 0.944167 0
1 0.942596 0
1 0.940917 0
1 0.939055 0
1 0.937133 0
1 0.935347 0
1 0.933791 0
1 0.93254 0
1 0.93167 0
0 1 0
0 1 0
0 1 0
0 1 0
0 1 0
0 1 0
0 1 0
0.000320439 1 0
0.0438239 1 0
0.0927596 1 0
0.145403 1 0
0.202838 1 0
0.266712 1 0
0.336858 1 0
0.410697 1 0
0.484916 1 0
0.560403 1 0
0.63743 1 0
0.71458 1 0
0.78645 1 0
0.849683 0.996506 0
0.90547 0.990875 0
0.95552 0.98732 0
1 0.984543 0
1 0.982391 0
1 0.980636 0
1 0.979156 0
1 0.977752 0
1 0.976333 0
1 0.974945 0
1 0.973693 0
1 0.972641 0
1 0.971893 0
0 1 0
0 1 0
0 1 0
0 1 0
0 1 0
0 1 0
0 1 0
0 1 0
0.0383307 1 0
0.0861982 1 0
0.137728 1 0
0.193713 1 0
0.25594 1 0
0.324681 1 0
0.397711 1 0
0.471595 1 0
0.546578 1 0
0.622766 1 0
0.699672 1 0
0.773358 1 0
0.84004 1 0
0.897612 1 0
0.947967 1 0
0.994141 1 0
1 1 0
1 1 0
1 1 0
1 1 0
1 1 0
1 1 0
1 1 0
1 1 0
1 1 0
0 1 0
0 1 0
0 1 0
0 1 0
0 1 0
0 1 0
0 1 0
0 1 0
0.0327764 1 0
0.0795453 1 0
0.130129 1 0
0.184909 1 0
0.245731 1 0
0.313161 1 0
0.385428 1 0
0.459113 1 0
0.533593 1 0
0.609522 1 0
0.685893 1 0
0.760204 1 0
0.829328 1 0
0.88925 1 0
0.940597 1 0
0.986816 1 0
1 1 0
1 1 0
1 1 0
1 1 0
1 1 0
1 1 0
1 1 0
1 1 0
1 1 0
0 1 0
0 1 0
0 1 0
0 1 0
0 1 0
0 1 0
0 1 0
0 1 0
0.0278019 1 0
0.0730755 1 0
0.122881 1 0
0.176669 1 0
0.236301 1 0
0.302556 1 0
0.374105 1 0
0.447623 1 0
0.521721 1 0
0.597574 1 0
0.673594 1 0
0.748058 1 0
0.818524 1 0
0.88069 1 0
0.933532 1 0
0.980224 1 0
1 1 0
1 1 0
1 1 0
1 1 0
1 1 0
1 1 0
1 1 0
1 1 0
1 1 0
0 1 0
0 1 0
0 1 0
0 1 0
0 1 0
0 1 0
0 1 0
0 1 0
0.0231327 1 0
